!!!COM: Johannes Brahms
!!!CNT: Deutscher
!!!TXO: Deutsche
!!!OTL: Magyaarisch
!!!OPS: Op. 46
!!!ONM: No. 2
!!!LYR: Daumer
!!!ONB: Original key: A Major
!!!ENC: Ayako Kataoka        
!!!EED: Leigh VanHandel
!!!YOR: C.F. Peters, Brahms Lieder fu2r eine Singstimme mit Klavierbegleitung, Band III, ausgabe fu2r tiefere Stimme
!!!ODT: 1868/
!!NB: Vocal melody and text only encoded.
**kern	**silbe
*clefG2	*
*k[f#]	*
*M2/4	*
*MM[andante]	*
=6	=6
{4.d	{Sah
8d	dem
=7	=7
4b	ed-
4cc	-len
=8	=8
4.dd	Bild-
8cc	-nis
=9	=9
(8b	In
8a)	|
(8g	des
8cc)	|
=10	=10
4b	Au-
4a	-ges
=11	=11
4g	all-
4g	-zu-
=12	=12
4.cc	-su2-
8cc	-ssen
=13	=13
4b	Wun-
(8a	-der
8g)	|
=14	=14
(f#q	schein,
4.a)}	|}
8r	.
=15	=15
{4b	{bu2ss-
4cc	-te
=16	=16
4.dd	so
8cc	den
=17	=17
(8b	ei-
8a)	|
8g	-ge-
8cc	-nen
=18	=18
4b	Au-
4a}	-ges}
=19	=19
4r	.
{[4g	{hei-
=20	=20
4g]	|
4cc	-tern
=21	=21
(4b	Schim-
8a)	|
8g	-mer
=22	=22
(f#q	ein
4.a)}	|}
8r	.
=23	=23
{4.a	{Herr,
8a	mein
=24	=24
(8b	Gott,
8a)	|
4g	was
=25	=25
8.a	hast
16a	du
8b	doch
8g	ge-
=26	=26
(8b	-bild-
8g)	|
4a	-et
=27	=27
8.b-	uns
16b-	zu
8cc	Jam-
8a}	-mer,}
=29	=29
{8.dd	{uns
16dd	zu
[4ee-	Jam-
=30	=30
8ee-]	|
8cc	-mer
8a-	und
8g	zu
=31	=31
(4g	Qual,
4f#)}	|}
=33	=33
{8.an	{sol-
16a	-che
8bn	dunke-
8cc	-le
=34	=34
4dd	Ster-
4g	-ne
=35	=35
4cc	mit
4ee	so
=36	=36
(8dd	lich-
8g)	|
(8a	-tem-
8cc)	|
=37	=37
4.b	Zau-
8a	-ber-
=38	=38
4g}	-strahl!}
4r	.
=41	=41
8r	.
{4d	{Mich
8d	ge-
=42	=42
4b	-blen-
4cc	-det
=43	=43
4.dd	hat
8cc	fu2r
=44	=44
(8b	al-
8a)	|
(8g	-le
8cc)	|
=45	=45
4b	Won-
4a	-nen
=46	=46
4.g	die-
8g	-ser
=47	=47
4.cc	Er-
8cc	-de
=48	=48
4b	je-
(8a	-ne
8g)	|
=49	=49
(f#q	Pracht;
4.a)}	|}
8r	.
=50	=50
{4.a	{all-
8a	-um-
=51	=51
(8b	-her,
8a)	|
4g	wo
=52	=52
8.a	mei-
16a	-ne
8b	Bli-
8g	-cke
=53	=53
(8b	for-
8g)	|
4a	-schen,
=54	=54
4b	ist
4cc	es
=55	=55
4.dd}	Nacht,}
8r	.
=56	=56
{2cc	{all-
=57	=57
2ee	-um-
=58	=58
(8dd	-her,
8g)}	|}
{(8a	{wo
8cc)	|
=59	=59
(8b	mei-
8a)	|
(8b	-ne
8cc)	|
=60	=60
(8b	Bli-
8a)	|
(8b	-cke
8ee)	|
=61	=61
(8dd	for-
8cc)	|
(8b	-schen,
8a)}	|}
=62	=62
{(4dd	{ist
[4b	|
=63	=63
4b]	|
4a)	es
=64	=64
2g}	Nacht,}
=66	=66
4r	.
{[4b	{ist
=67	=67
4b]	|
4a	es
=68	=68
2g}	Nacht.}
*-	*-
